X:1
T: The Boys of Ballinchalla
C:
R:Reel
Q: 232
K:G
M:4/4
L:1/8
dc|BG ((3GGG) BG dc|BG ((3GGG) d2 cB|cA ((3AAA) cA eA|cA ((3AAA) e2 dc|
BG ((3GGG) BG dc|BG ((3GGG) d2 cB|ce dc BG AF|DG GF G2 BA|
|:Gg gf ge dB|Gg gf ge dB|Aa a^g ae cB|Aa a^g ae cA|
Gg gf ge dB|Gg gf gf ga|gf ef gf eg|bg af ge dB:|
BG ((3GGG) BG dc|BG ((3GGG) d2 cB|cA ((3AAA) cA eA|cA ((3AAA) e2 dc|
BG ((3GGG) BG dc|BG ((3GGG) d2 cB|ce dc BG AF|DG GF G2||
